X: 018
T: Queen's Palace
B: 204 Favourite Country Dances
N: Published by Straight & Skillern, London ca.1775
F: http://imslp.org/wiki/204_Favourite_Country_Dances_(Various) p.9 #18
Z: 2014 John Chambers <jc:trillian.mit.edu>
M: 2/4
L: 1/8
K: G
%  - - - - - - - - - - - - - - - - - - - - - - - - -
d |\
B G2 B | d B2 d | gf/e/ dc | cB2 d |\
e g2 e | d g2 d | c/B/c/d/ cB | A3 :|
|: A |\
d f2 e | f d2 A | d f2 e | d/=c/d/e/ dd |\
B G2 B | c A2 d | g d2 c | BGG :|
%  - - - - - - - - - - - - - - - - - - - - - - - - -
%%begintext align
%% Cast off 1. Cu. hands 4 round with the 3d Cu.
%% cast up & hands round with the 2d Cu. cross
%% over 2 Cu. lead up to the top foot it &
%% cast off
%%endtext

%%sep 1 1 500
%%sep 1 1 500
